X: 20080628-1 
T: Lumps Of Plum Pudding (Bampton version) 
M: 6/8 
L: 1/8 R: jig 
K: Gmaj d | B>AG g>fg | d>ed G2A | B>AG G>AB | A>FD D3 | 
B>AG g>fg | d>ef g>dB | c>AF G>Bc | d2B G2 d |
B>dg B>dg | d>cd G2B | A>ce A>ce | B>dB G2 d |
B>dg B>dg | d>ef g>dB | c>AF G>Bc | d2B G2 d ||
